X: 3246
M: 6/8
L: 1/8
K: D
|:\
vA2vA uA2ud | B2B B2d | c2c cBc | d2e fga |\
|:\
f2f fef | g2g g3 | e2e ede | f2f f3 |\
d2d dcd | e2e e2d | cde ABc | d3 d3 :|


